X:41
T:O Willie Brew'd a Peck O' Maut
C:arr. Carlo Minasi
M:C
L:1/8
B:Chappell's One Hundred Scotch Melodies
B:Arranged for the Concertina by Carlo Minasi
Q:"Allegro Moderato  "1/4=140
Z:Peter Dunk 2012
K:D
!mf![FD][GE]|[A2F2][d2F2] [BG][AF][GE][FD]|[B2G2]e2 [dGE]cBA|\
[d3F3] [BG] [A2F2][F2D2]|L([B2G2][E2D2B,2])[E2C2A,2] [FD][GE]|
[A2F2][d2F2] [BG][AF][GE][FD]|[B2G2]e2 [dGE]cBA|\
[d3F3] [BG] [A2F2][F2D2]|L([A2F2]D2) D2||
de|[f3A3] d [e3G3] c|([dF][cA][BG][AF]) [d3F3] [FD]|\
[G3E3] [BG] [A2F2]F2|L([B2G2][E2D2B,2])[E2C2A,2] de|
[f3A3] d [e3G3] c|([dF][cA][BG][AF]) [d3F3] [FD]|\
[G3E3] [BG] [A3F3] [GE]|L([A2F2]D2) D2||

